symbols/web/bathtub/materialsymbolsoutlined/bathtub_fill1_20px.svg

<svg xmlns="http://www.w3.org/2000/svg" height="20" width="20"><path d="M5.854 7.5q-.708 0-1.198-.49-.489-.489-.489-1.198 0-.708.489-1.197.49-.49 1.198-.49t1.198.49q.49.489.49 1.197 0 .709-.49 1.198-.49.49-1.198.49ZM4.25 18.333q-.354 0-.594-.229-.239-.229-.239-.583-.729 0-1.24-.511-.51-.51-.51-1.239v-4.938h2.521v-.625q0-.791.541-1.343.542-.553 1.333-.553.417 0 .771.157.355.156.646.448l1.209 1.333.312.312q.146.146.312.271H15v-6.75q0-.271-.167-.468-.166-.198-.416-.198-.146 0-.261.052-.114.052-.218.156l-1.042 1.021q.104.354.021.698-.084.344-.271.656l-2.334-2.396q.292-.208.646-.26.354-.052.688.073l1.021-1.042q.354-.354.812-.531.459-.177.938-.177 1 0 1.666.708.667.708.667 1.708v6.75h1.583v4.938q0 .729-.51 1.239-.511.511-1.24.511 0 .354-.229.583-.229.229-.583.229Z"/></svg>

<svg xmlns="http://www.w3.org/2000/svg" height="20" width="20"><path d="M5.854 7.5Q5.146 7.5 4.656 7.01Q4.167 6.521 4.167 5.812Q4.167 5.104 4.656 4.615Q5.146 4.125 5.854 4.125Q6.562 4.125 7.052 4.615Q7.542 5.104 7.542 5.812Q7.542 6.521 7.052 7.01Q6.562 7.5 5.854 7.5ZM4.25 18.333Q3.896 18.333 3.656 18.104Q3.417 17.875 3.417 17.521Q2.688 17.521 2.177 17.01Q1.667 16.5 1.667 15.771V10.833H4.188V10.208Q4.188 9.417 4.729 8.865Q5.271 8.312 6.062 8.312Q6.479 8.312 6.833 8.469Q7.188 8.625 7.479 8.917L8.688 10.25Q8.854 10.417 9 10.562Q9.146 10.708 9.312 10.833H15V4.083Q15 3.812 14.833 3.615Q14.667 3.417 14.417 3.417Q14.271 3.417 14.156 3.469Q14.042 3.521 13.938 3.625L12.896 4.646Q13 5 12.917 5.344Q12.833 5.688 12.646 6L10.312 3.604Q10.604 3.396 10.958 3.344Q11.312 3.292 11.646 3.417L12.667 2.375Q13.021 2.021 13.479 1.844Q13.938 1.667 14.417 1.667Q15.417 1.667 16.083 2.375Q16.75 3.083 16.75 4.083V10.833H18.333V15.771Q18.333 16.5 17.823 17.01Q17.312 17.521 16.583 17.521Q16.583 17.875 16.354 18.104Q16.125 18.333 15.771 18.333Z"/></svg>
